packages/dnb-eufemia/assets/icons/phone.svg

<svg width="16" height="16" viewBox="0 0 16 16" fill="none" xmlns="http://www.w3.org/2000/svg">
<path d="M9.89444 14.4588C10.581 14.8593 11.3274 15.0691 12.127 14.9814C13.2018 14.8636 13.9407 14.2393 14.6686 13.5114C15.1105 13.069 15.1105 12.3299 14.6686 11.8875L12.6388 9.85892C12.1964 9.41704 11.4573 9.41704 11.0148 9.85892C10.5734 10.3009 9.8329 10.3009 9.3915 9.85892L6.14357 6.61037C5.7017 6.16794 5.7017 5.42883 6.14357 4.98641C6.58102 4.5495 6.58534 3.80429 6.14357 3.36307L4.1144 1.3314C3.67197 0.889532 2.93286 0.889532 2.49044 1.3314C1.76261 2.05924 1.13848 2.79821 1.02045 3.87295C0.936205 4.64009 1.11259 5.45983 1.54308 6.10557C3.76733 9.3982 6.6023 12.2338 9.89444 14.4588Z" stroke="black" stroke-width="1.5" stroke-linecap="round" stroke-linejoin="round"/>
</svg>

<svg width="16" height="16" viewBox="0 0 16 16" fill="none" xmlns="http://www.w3.org/2000/svg"><path d="M9.894 14.459c.687.4 1.433.61 2.233.522 1.075-.117 1.814-.742 2.541-1.47a1.16 1.16 0 0 0 0-1.623l-2.03-2.03a1.16 1.16 0 0 0-1.623 0 1.16 1.16 0 0 1-1.624 0L6.144 6.61a1.16 1.16 0 0 1 0-1.624 1.164 1.164 0 0 0 0-1.623l-2.03-2.032a1.16 1.16 0 0 0-1.624 0c-.727.728-1.352 1.467-1.47 2.542-.084.767.093 1.587.523 2.233a31.082 31.082 0 0 0 8.351 8.353Z" stroke="#000" stroke-width="1.5" stroke-linecap="round" stroke-linejoin="round"/></svg>
